X: 114
T:Greenholm
% Nottingham Music Database
S:Trad, arr Phil Rowe
M:6/8
K:G
d|"G"dBG GBd|"C"efg g2e|"G"dBG GAB|"A7"ABG "D7"FED|
"G"dBG GBd|"C"efg g2e|"G"dBG "D7"ABA|"G"G3 -G2::
B/2c/2|"G"dBd gfg|"C"ece gfg|"G"dBG GAB|"A7"A3 -"D7"A2d|
"G"dBG GBd|"C"efg g2e|"G"dBG "D7"ABA|"G"G3 -G2:|


